assets/svg/1F503.svg

<svg xmlns="http://www.w3.org/2000/svg" viewBox="0 0 64 64" enable-background="new 0 0 64 64"><g transform="translate(6)" fill="#25333a"><path d="m23.64 1.713c.619 3.468.847 7.01.91 10.696 5.102.25 8.762 2.25 10.932 6.06.536.9.953 1.972 1.245 3.207.295 1.225.479 2.419.553 3.568.075 1.152.117 2.734.117 4.766v9.236h-.035v12.189h.776c1.315 0 2.379-.173 3.199-.515.823-.34 1.459-1.069 1.914-2.192.451-1.118.676-2.796.676-5.01v-15.894c0-2.755-.121-5.25-.359-7.441-.239-2.208-.658-4.265-1.248-6.183-.587-1.922-1.376-3.683-2.354-5.296-1.27-2.057-2.722-3.729-4.332-5.05-1.611-1.31-3.426-2.285-5.442-2.915-1.782-.557-3.762-.83-5.881-.893-.161.593-.389 1.152-.671 1.661"/><path d="m30.58 41.896c-.847.733-1.452 2.108-1.552 3.73l11.596 17.338 11.52-17.324c-.1-1.636-.709-3.01-1.556-3.744h-20.01"/><ellipse cx="24.775" cy="6.264" rx="4.822" ry="6.264"/><path d="m28.502 62.24c-.617-3.466-.845-7.01-.908-10.698-5.102-.249-8.764-2.25-10.932-6.06-.536-.904-.952-1.976-1.246-3.209-.296-1.223-.478-2.419-.553-3.563-.075-1.154-.113-2.738-.113-4.771v-9.236h.033v-12.189h-.776c-1.315 0-2.379.173-3.201.515-.824.338-1.459 1.071-1.913 2.193-.451 1.121-.676 2.794-.676 5.01v15.896c0 2.758.121 5.246.355 7.442.244 2.209.661 4.264 1.252 6.182.588 1.918 1.373 3.681 2.353 5.296 1.271 2.055 2.717 3.731 4.334 5.05 1.611 1.312 3.425 2.285 5.442 2.915 1.78.558 3.76.83 5.881.894.159-.599.388-1.154.668-1.663"/><path d="m21.564 22.06c.847-.733 1.452-2.104 1.552-3.729l-11.598-17.34-11.518 17.326c.1 1.638.703 3.01 1.555 3.743h20.01"/><ellipse cx="27.368" cy="57.691" rx="4.821" ry="6.268"/></g></svg>

<?xml version="1.0" encoding="UTF-8" standalone="no"?>
<!-- Generator: Adobe Illustrator 16.0.0, SVG Export Plug-In . SVG Version: 6.00 Build 0)  -->

<svg
   xmlns:dc="http://purl.org/dc/elements/1.1/"
   xmlns:cc="http://creativecommons.org/ns#"
   xmlns:rdf="http://www.w3.org/1999/02/22-rdf-syntax-ns#"
   xmlns:svg="http://www.w3.org/2000/svg"
   xmlns="http://www.w3.org/2000/svg"
   xmlns:sodipodi="http://sodipodi.sourceforge.net/DTD/sodipodi-0.dtd"
   xmlns:inkscape="http://www.inkscape.org/namespaces/inkscape"
   version="1.1"
   id="Layer_1"
   x="0px"
   y="0px"
   width="64px"
   height="64px"
   viewBox="0 0 64 64"
   enable-background="new 0 0 64 64"
   xml:space="preserve"
   inkscape:version="0.48.5 r10040"
   sodipodi:docname="1F503.svg"
   inkscape:export-filename="D:\TESTINGEMOJI\SVGTEST\1F503.png"
   inkscape:export-xdpi="90"
   inkscape:export-ydpi="90"><metadata
   id="metadata4258"><rdf:RDF><cc:Work
       rdf:about=""><dc:format>image/svg+xml</dc:format><dc:type
         rdf:resource="http://purl.org/dc/dcmitype/StillImage" /><dc:title></dc:title></cc:Work></rdf:RDF></metadata><defs
   id="defs4256" /><sodipodi:namedview
   pagecolor="#ffffff"
   bordercolor="#666666"
   borderopacity="1"
   objecttolerance="10"
   gridtolerance="10"
   guidetolerance="10"
   inkscape:pageopacity="0"
   inkscape:pageshadow="2"
   inkscape:window-width="640"
   inkscape:window-height="480"
   id="namedview4254"
   showgrid="false"
   inkscape:zoom="3.6875"
   inkscape:cx="32"
   inkscape:cy="32"
   inkscape:window-x="427"
   inkscape:window-y="316"
   inkscape:window-maximized="0"
   inkscape:current-layer="Layer_1" />
<g
   id="g4232"
   transform="translate(6,0)">
	<g
   id="g4234">
		<g
   id="g4236">
			<path
   d="m 23.64,1.713 c 0.619,3.468 0.847,7.009 0.91,10.696 5.102,0.25 8.762,2.25 10.932,6.064 0.536,0.9 0.953,1.972 1.245,3.207 0.295,1.225 0.479,2.419 0.553,3.568 0.075,1.152 0.117,2.734 0.117,4.766 v 9.236 h -0.035 v 12.189 h 0.776 c 1.315,0 2.379,-0.173 3.199,-0.515 0.823,-0.34 1.459,-1.069 1.914,-2.192 0.451,-1.118 0.676,-2.796 0.676,-5.008 V 27.83 c 0,-2.755 -0.121,-5.25 -0.359,-7.441 C 43.329,18.181 42.91,16.124 42.32,14.206 41.733,12.284 40.944,10.523 39.966,8.91 38.696,6.853 37.244,5.181 35.634,3.86 34.023,2.55 32.208,1.575 30.192,0.945 28.41,0.388 26.43,0.115 24.311,0.052 24.15,0.645 23.922,1.204 23.64,1.713 z"
   id="path4238"
   inkscape:connector-curvature="0"
   style="fill:#25333a" />
			<path
   d="m 30.58,41.896 c -0.847,0.733 -1.452,2.108 -1.552,3.73 L 40.624,62.964 52.144,45.64 c -0.1,-1.636 -0.709,-3.011 -1.556,-3.744 H 30.58 z"
   id="path4240"
   inkscape:connector-curvature="0"
   style="fill:#25333a" />
		</g>
		<ellipse
   cx="24.775"
   cy="6.2639999"
   rx="4.822"
   ry="6.2639999"
   id="ellipse4242"
   sodipodi:cx="24.775"
   sodipodi:cy="6.2639999"
   sodipodi:rx="4.822"
   sodipodi:ry="6.2639999"
   style="fill:#25333a"
   d="M 29.597,6.2639999 C 29.597,9.7235116 27.438117,12.528 24.775,12.528 22.111883,12.528 19.953,9.7235116 19.953,6.2639999 19.953,2.8044883 22.111883,0 24.775,0 c 2.663117,0 4.822,2.8044883 4.822,6.2639999 z" />
	</g>
	<g
   id="g4244">
		<g
   id="g4246">
			<path
   d="M 28.502,62.244 C 27.885,58.778 27.657,55.233 27.594,51.546 22.492,51.297 18.83,49.296 16.662,45.484 16.126,44.58 15.71,43.508 15.416,42.275 15.12,41.052 14.938,39.856 14.863,38.712 14.788,37.558 14.75,35.974 14.75,33.941 v -9.236 h 0.033 V 12.516 h -0.776 c -1.315,0 -2.379,0.173 -3.201,0.515 -0.824,0.338 -1.459,1.071 -1.913,2.193 -0.451,1.121 -0.676,2.794 -0.676,5.008 v 15.896 c 0,2.758 0.121,5.246 0.355,7.442 0.244,2.209 0.661,4.264 1.252,6.182 0.588,1.918 1.373,3.681 2.353,5.296 1.271,2.055 2.717,3.731 4.334,5.05 1.611,1.312 3.425,2.285 5.442,2.915 1.78,0.558 3.76,0.83 5.881,0.894 0.159,-0.599 0.388,-1.154 0.668,-1.663 z"
   id="path4248"
   inkscape:connector-curvature="0"
   style="fill:#25333a" />
			<path
   d="m 21.564,22.06 c 0.847,-0.733 1.452,-2.104 1.552,-3.729 L 11.518,0.991 0,18.317 c 0.1,1.638 0.703,3.009 1.555,3.743 h 20.009 z"
   id="path4250"
   inkscape:connector-curvature="0"
   style="fill:#25333a" />
		</g>
		<ellipse
   cx="27.368"
   cy="57.691002"
   rx="4.8210001"
   ry="6.2680001"
   id="ellipse4252"
   sodipodi:cx="27.368"
   sodipodi:cy="57.691002"
   sodipodi:rx="4.8210001"
   sodipodi:ry="6.2680001"
   style="fill:#25333a"
   d="m 32.189,57.691002 c 0,3.461721 -2.158435,6.268 -4.821,6.268 -2.662565,0 -4.821,-2.806279 -4.821,-6.268 0,-3.461721 2.158435,-6.268 4.821,-6.268 2.662565,0 4.821,2.806279 4.821,6.268 z" />
	</g>
</g>
</svg>
